X:119
T:Thrifty Wife,The. WM.119
M:2/4
L:1/16
Q:1/4=90
S:Wm.Mittell’s MS, New Romney,Kent,1799
R:.Country Dance
O:England
A:Kent
Z:vmp.Chris Partington
K:D
cefd gabg|efed (cA).A2|cefd gbag|fedc d2d2:|!
|:eAcA aAcA|bged dcBA|dafa ebge|faAc d2d2:|

